front/public/static/landing/home/tools/zendesk.svg

<svg height="800" preserveAspectRatio="xMidYMid" viewBox="0 -30.5 256 256" width="800" xmlns="http://www.w3.org/2000/svg"><path d="m118.249172 51.2326115v142.7729935h-118.249172zm0-51.2326115c0 32.6440764-26.4805096 59.124586-59.124586 59.124586s-59.124586-26.4805096-59.124586-59.124586zm19.501656 194.005605c0-32.676688 26.447898-59.124586 59.124586-59.124586s59.124586 26.48051 59.124586 59.124586zm0-51.265223v-142.740382h118.249172z" fill="#03363d"/></svg>

<?xml version="1.0" encoding="UTF-8"?>
<!-- Uploaded to: SVG Repo, www.svgrepo.com, Generator: SVG Repo Mixer Tools -->
<svg width="800px" height="800px" viewBox="0 -30.5 256 256" version="1.1" xmlns="http://www.w3.org/2000/svg" xmlns:xlink="http://www.w3.org/1999/xlink" preserveAspectRatio="xMidYMid">
    <g>
        <path d="M118.249172,51.2326115 L118.249172,194.005605 L0,194.005605 L118.249172,51.2326115 Z M118.249172,2.84217094e-14 C118.249172,32.6440764 91.7686624,59.124586 59.124586,59.124586 C26.4805096,59.124586 0,32.6440764 0,2.84217094e-14 L118.249172,2.84217094e-14 Z M137.750828,194.005605 C137.750828,161.328917 164.198726,134.881019 196.875414,134.881019 C229.552102,134.881019 256,161.361529 256,194.005605 L137.750828,194.005605 Z M137.750828,142.740382 L137.750828,0 L256,0 L137.750828,142.740382 Z" fill="#03363D">
</path>
    </g>
</svg>
